X: 041247
T: Din Tarrant's #2
S: "Johnny O'Leary of Sliabh Luachra" (#185)
Z: B.Black
L: 1/8
M: 2/4
R: polka
K: G
ge|: d>B c/d/cA|BG GG/A/B|AD FG|AG G>B|
dB c/B/A|BG GG/A/B|AD FD/E/F|AG G2 :|
Bd gf/g/|fe ed/e/|Bd ef|e>d BA|
B/c/d gf/g/|fe ef/e/|Bd ef|g2 g2 :|
